X: 3
T:Scottishe de Besanon
T:Scottishe  deux tons 
T:Scottish  Kerbeuf 
T:Scottishe  Dd
R:Scottiche
O:France
D:voir La Mirlitantouille
Z:<anamnese@laposte.net>
N:tagafolk.abc (version lgrement diffrente)
M:4/4
L:1/8
Q:1/4=206
K:G
|: D2G2 B2A2 | FGFE D4 | FGAB AGFG | ABcA B2G2 |\
D2G2 B2G2 | FGFE D4 | FGAB AGFG | ABAF G4 :||:
K:F
G2B2 d2B2 | ABAG A4 | ABcB AGFG | A2B2A2G2 |\
G2B2 d2B2 | ABAG A4 | ABcB AGFG | A2B2G4 :|
